X: 4067
T: Blest Among Women
R: reel
M: 4/4
K: Amixolydian
|:CEAB cAdc|BGFG EFED|CEAB cdec|dB^GB A2ED|
CEAB cAdc|BG3 GGBd|=ccAc Bdge|1 dB^GB A2ED:|2 dB^GB ABcd||
|:e2aa edc2|gdBG DGBG|ABce aece|dfed cAcd|
ea3 edc2|gdBG DGB2|=c2Ac Bdge|1 dB^GB ABcd:|2 dB^GB AFED||

